cs
ht
to drawside :size :depth test :depth<1 iftrue [fd :size] iffalse [drawside :size/3 :depth-1 lt 60 drawside :size/3 :depth-1 rt 120 drawside :size/3 :depth-1 lt 60 drawside :size/3 :depth-1]
end
to snowflake :size :depth repeat 3 [drawside :size :depth rt 120]
end
pu
setxy -100 -200
pd
snowflake 400 4
